packages/icons/svg/Outline/arrow-left-up.svg

<svg width="24" height="24" viewBox="0 0 24 24" fill="none" xmlns="http://www.w3.org/2000/svg">
<g id="Icon/Outline/arrow-left-up">
<path id="Mask" fill-rule="evenodd" clip-rule="evenodd" d="M17.707 16.293L9.41803 8.004L15.001 8C15.553 8 16 7.551 16 6.999C16 6.447 15.552 6 15 6H14.999L7.04903 6.006C6.49903 6.007 6.05403 6.451 6.05003 7L6.00003 14.994C5.99603 15.546 6.44103 15.997 6.99403 16H7.00003C7.55003 16 7.99603 15.556 8.00003 15.006L8.03503 9.449L16.293 17.707C16.488 17.902 16.744 18 17 18C17.256 18 17.512 17.902 17.707 17.707C18.098 17.316 18.098 16.684 17.707 16.293Z" fill="#000000"/>
</g>
</svg>

<svg fill="none" height="24" viewBox="0 0 24 24" width="24" xmlns="http://www.w3.org/2000/svg"><path clip-rule="evenodd" d="m17.707 16.293-8.28897-8.289 5.58297-.004c.552 0 .999-.449.999-1.001s-.448-.999-1-.999h-.001l-7.94997.006c-.55.001-.995.445-.999.994l-.05 7.994c-.004.552.441 1.003.994 1.006h.006c.55 0 .996-.444 1-.994l.035-5.557 8.25797 8.258c.195.195.451.293.707.293s.512-.098.707-.293c.391-.391.391-1.023 0-1.414" fill="#6b7280" fill-rule="evenodd"/></svg>
